assets/images/cat-3.svg

<svg width="64" height="64" viewBox="0 0 64 64" fill="none" xmlns="http://www.w3.org/2000/svg">
<g id="fluent:math-symbols-32-filled">
<path id="Vector" d="M17.7145 7C18.9467 7 19.9466 8.02752 19.9466 9.29356V15.7155H26.1966C26.7886 15.7155 27.3564 15.9572 27.775 16.3873C28.1936 16.8174 28.4287 17.4008 28.4287 18.0091C28.4287 18.6174 28.1936 19.2008 27.775 19.6309C27.3564 20.061 26.7886 20.3027 26.1966 20.3027H19.9466V27.6421C19.9466 28.2504 19.7115 28.8337 19.2929 29.2639C18.8743 29.694 18.3065 29.9356 17.7145 29.9356C17.1225 29.9356 16.5548 29.694 16.1362 29.2639C15.7176 28.8337 15.4824 28.2504 15.4824 27.6421V20.3027H9.23242C8.64043 20.3027 8.07268 20.061 7.65407 19.6309C7.23546 19.2008 7.00029 18.6174 7.00029 18.0091C7.00029 17.4008 7.23546 16.8174 7.65407 16.3873C8.07268 15.9572 8.64043 15.7155 9.23242 15.7155H15.4824V9.29356C15.4824 8.02752 16.4824 7 17.7145 7ZM27.7752 53.0841L20.8716 45.9906L27.7752 38.8971C28.1938 38.4669 28.429 37.8834 28.429 37.275C28.429 36.6667 28.1938 36.0832 27.7752 35.653C27.3565 35.2229 26.7887 34.9812 26.1966 34.9812C25.6045 34.9812 25.0367 35.2229 24.618 35.653L17.7145 42.7466L10.811 35.653C10.6037 35.44 10.3576 35.2711 10.0867 35.1558C9.81589 35.0405 9.52559 34.9812 9.23242 34.9812C8.64035 34.9812 8.07252 35.2229 7.65386 35.653C7.2352 36.0832 7 36.6667 7 37.275C7 37.8834 7.2352 38.4669 7.65386 38.8971L14.5574 45.9906L7.65386 53.0841C7.44656 53.2971 7.28212 53.55 7.16993 53.8283C7.05774 54.1066 7 54.4049 7 54.7061C7 55.0074 7.05774 55.3057 7.16993 55.584C7.28212 55.8623 7.44656 56.1151 7.65386 56.3281C8.07252 56.7583 8.64035 57 9.23242 57C9.52559 57 9.81589 56.9407 10.0867 56.8254C10.3576 56.7101 10.6037 56.5412 10.811 56.3281L17.7145 49.2346L24.618 56.3281C25.0367 56.7583 25.6045 57 26.1966 57C26.7887 57 27.3565 56.7583 27.7752 56.3281C28.1938 55.898 28.429 55.3145 28.429 54.7061C28.429 54.0978 28.1938 53.5143 27.7752 53.0841ZM37.8037 15.7155C37.2117 15.7155 36.6439 15.9572 36.2253 16.3873C35.8067 16.8174 35.5716 17.4008 35.5716 18.0091C35.5716 18.6174 35.8067 19.2008 36.2253 19.6309C36.6439 20.061 37.2117 20.3027 37.8037 20.3027H54.7679C55.3599 20.3027 55.9276 20.061 56.3462 19.6309C56.7648 19.2008 57 18.6174 57 18.0091C57 17.4008 56.7648 16.8174 56.3462 16.3873C55.9276 15.9572 55.3599 15.7155 54.7679 15.7155H37.8037ZM37.8037 43.2383C37.2117 43.2383 36.6439 43.48 36.2253 43.9101C35.8067 44.3402 35.5716 44.9236 35.5716 45.5319C35.5716 46.1402 35.8067 46.7235 36.2253 47.1537C36.6439 47.5838 37.2117 47.8254 37.8037 47.8254H54.7679C55.3599 47.8254 55.9276 47.5838 56.3462 47.1537C56.7648 46.7235 57 46.1402 57 45.5319C57 44.9236 56.7648 44.3402 56.3462 43.9101C55.9276 43.48 55.3599 43.2383 54.7679 43.2383H37.8037ZM49.8572 37.7338C49.8572 38.707 49.4809 39.6404 48.8111 40.3286C48.1414 41.0168 47.233 41.4035 46.2858 41.4035C45.3386 41.4035 44.4302 41.0168 43.7604 40.3286C43.0906 39.6404 42.7144 38.707 42.7144 37.7338C42.7144 36.7605 43.0906 35.8271 43.7604 35.1389C44.4302 34.4507 45.3386 34.0641 46.2858 34.0641C47.233 34.0641 48.1414 34.4507 48.8111 35.1389C49.4809 35.8271 49.8572 36.7605 49.8572 37.7338ZM46.2858 56.9997C47.233 56.9997 48.1414 56.6131 48.8111 55.9249C49.4809 55.2367 49.8572 54.3033 49.8572 53.33C49.8572 52.3567 49.4809 51.4233 48.8111 50.7351C48.1414 50.0469 47.233 49.6603 46.2858 49.6603C45.3386 49.6603 44.4302 50.0469 43.7604 50.7351C43.0906 51.4233 42.7144 52.3567 42.7144 53.33C42.7144 54.3033 43.0906 55.2367 43.7604 55.9249C44.4302 56.6131 45.3386 56.9997 46.2858 56.9997Z" fill="white"/>
</g>
</svg>

<svg width="64" height="64" fill="none" xmlns="http://www.w3.org/2000/svg"><path d="M17.715 7c1.232 0 2.232 1.028 2.232 2.294v6.421h6.25c.592 0 1.16.242 1.578.672.419.43.654 1.014.654 1.622 0 .608-.235 1.192-.654 1.622-.419.43-.986.672-1.578.672h-6.25v7.34c0 .607-.235 1.19-.654 1.62-.419.431-.986.673-1.578.673-.593 0-1.16-.242-1.579-.672a2.326 2.326 0 0 1-.654-1.622v-7.34h-6.25c-.592 0-1.16-.241-1.578-.671A2.326 2.326 0 0 1 7 18.009c0-.608.235-1.192.654-1.622.419-.43.986-.671 1.578-.671h6.25V9.294c0-1.266 1-2.294 2.233-2.294Zm10.06 46.084-6.903-7.093 6.903-7.094c.419-.43.654-1.014.654-1.622 0-.608-.235-1.192-.654-1.622a2.203 2.203 0 0 0-1.578-.672c-.592 0-1.16.242-1.579.672l-6.903 7.094-6.904-7.094a2.23 2.23 0 0 0-.724-.497 2.18 2.18 0 0 0-.855-.175c-.592 0-1.16.242-1.578.672A2.326 2.326 0 0 0 7 37.275c0 .608.235 1.192.654 1.622l6.903 7.094-6.903 7.093a2.3 2.3 0 0 0-.484.744 2.349 2.349 0 0 0 .484 2.5 2.18 2.18 0 0 0 2.433.497c.27-.115.517-.284.724-.497l6.904-7.093 6.903 7.093c.419.43.987.672 1.579.672s1.16-.242 1.578-.672c.419-.43.654-1.014.654-1.622 0-.608-.235-1.192-.654-1.622Zm10.029-37.369c-.592 0-1.16.242-1.579.672a2.326 2.326 0 0 0-.653 1.622c0 .608.235 1.192.653 1.622.419.43.987.672 1.579.672h16.964c.592 0 1.16-.242 1.578-.672.419-.43.654-1.014.654-1.622 0-.608-.235-1.192-.654-1.622a2.202 2.202 0 0 0-1.578-.671H37.804Zm0 27.523c-.592 0-1.16.242-1.579.672a2.326 2.326 0 0 0-.653 1.622c0 .608.235 1.192.653 1.622.419.43.987.671 1.579.671h16.964c.592 0 1.16-.241 1.578-.671.419-.43.654-1.014.654-1.622 0-.608-.235-1.192-.654-1.622a2.202 2.202 0 0 0-1.578-.672H37.804Zm12.053-5.504c0 .973-.376 1.906-1.046 2.595a3.523 3.523 0 0 1-2.525 1.075 3.524 3.524 0 0 1-2.526-1.075 3.721 3.721 0 0 1-1.046-2.595c0-.974.377-1.907 1.046-2.595a3.524 3.524 0 0 1 2.526-1.075c.947 0 1.855.387 2.525 1.075a3.721 3.721 0 0 1 1.046 2.595ZM46.286 57c.947 0 1.855-.387 2.525-1.075a3.721 3.721 0 0 0 1.046-2.595c0-.973-.376-1.907-1.046-2.595a3.523 3.523 0 0 0-2.525-1.075c-.947 0-1.856.387-2.526 1.075a3.721 3.721 0 0 0-1.046 2.595c0 .973.377 1.907 1.046 2.595A3.524 3.524 0 0 0 46.286 57Z" fill="#fff"/></svg>
